X: 1
T: An Thou Wert My Ain Thing
T: Gin thou wert mine awn thing
%R: air, march
Z: 2019 John Chambers <jc:trillian.mit.edu>
S: PDF from Darlene Wigton 2019-3-2
L: 1/8
M: 4/4
K: D
[|\
"D"A3 d "Bm"d3 f | "G"e2 dc "Em"B4 | "G"dc BA "D"de f2 | "G"gf ed "D"fg "A"a2 ||
w: An thou wert my ain thing* O, I* would* love* thee, I* would* love* thee.
"D"A3 d "Bm"d3 f | "G"e2 dc "Em"B4 | "D"ab af "G"gf ed | "Bm"d3 e "D"f4 |]
w: An thou wert my ain** thing, how* dear-ly I* would* love* thee.
"D"a2 A2 "Bm"A2 f2 | "G"e2 dc "Em"B3 c | "D"A2 a2 a3 b | ab "A"ag "D"f2 ff ||
w: I would clasp thee in my* arms, then I'd se-cure the from* al* harms,**
"G"ga bg "D"fg af | "Em"gf ed "G"B3 b | "D"ab af "Em"gf ed | "G"B4 "A"A2 z2 |]
w: for a-bove* mor-*tal* thou* hast* charms, how dear-*ly* do* I* love thee.

%%sep 1 1 500

